<?xml version="1.0" encoding="UTF-8"?>
<map version="1.10" tiledversion="1.11.0" orientation="orthogonal" renderorder="right-down" width="19" height="24" tilewidth="32" tileheight="32" infinite="0" nextlayerid="9" nextobjectid="22">
 <tileset firstgid="1" source="TileMaps/Basic_Tiles.tsx"/>
 <layer id="8" name="Lookup" class="hidden" width="19" height="24">
  <data encoding="csv">
3,4,5,0,0,0,0,0,0,0,0,0,0,0,0,0,0,0,0,
0,0,0,0,0,0,0,0,0,0,0,0,0,0,0,0,0,0,0,
0,0,0,0,0,0,0,0,0,0,0,0,0,0,0,0,0,0,0,
0,0,0,0,0,0,0,0,0,0,0,0,0,0,0,0,0,0,0,
0,0,0,0,0,0,0,0,0,0,0,0,0,0,0,0,0,0,0,
0,0,0,0,0,0,0,0,0,0,0,0,0,0,0,0,0,0,0,
0,0,0,0,0,0,0,0,0,0,0,0,0,0,0,0,0,0,0,
0,0,0,0,0,0,0,0,0,0,0,0,0,0,0,0,0,0,0,
0,0,0,0,0,0,0,0,0,0,0,0,0,0,0,0,0,0,0,
0,0,0,0,0,0,0,0,0,0,0,0,0,0,0,0,0,0,0,
0,0,0,0,0,0,0,0,0,0,0,0,0,0,0,0,0,0,0,
0,0,0,0,0,0,0,0,0,0,0,0,0,0,0,0,0,0,0,
0,0,0,0,0,0,0,0,0,0,0,0,0,0,0,0,0,0,0,
0,0,0,0,0,0,0,0,0,0,0,0,0,0,0,0,0,0,0,
0,0,0,0,0,0,0,0,0,0,0,0,0,0,0,0,0,0,0,
0,0,0,0,0,0,0,0,0,0,0,0,0,0,0,0,0,0,0,
0,0,0,0,0,0,0,0,0,0,0,0,0,0,0,0,0,0,0,
0,0,0,0,0,0,0,0,0,0,0,0,0,0,0,0,0,0,0,
0,0,0,0,0,0,0,0,0,0,0,0,0,0,0,0,0,0,0,
0,0,0,0,0,0,0,0,0,0,0,0,0,0,0,0,0,0,0,
0,0,0,0,0,0,0,0,0,0,0,0,0,0,0,0,0,0,0,
0,0,0,0,0,0,0,0,0,0,0,0,0,0,0,0,0,0,0,
0,0,0,0,0,0,0,0,0,0,0,0,0,0,0,0,0,0,0,
0,0,0,0,0,0,0,0,0,0,0,0,0,0,0,0,0,0,0
</data>
 </layer>
 <objectgroup id="7" name="Interact" class="obj">
  <properties>
   <property name="interact" type="bool" value="true"/>
  </properties>
  <object id="18" name="btn1" x="445.417" y="606.917" width="36" height="36">
   <properties>
    <property name="function" value="setb 19 collide False;settile Decor 15 11 0 0"/>
   </properties>
  </object>
 </objectgroup>
 <objectgroup id="4" name="Lvl_Data" class="obj">
  <object id="1" name="spwn" x="130.347" y="357.036">
   <point/>
  </object>
  <object id="13" name="exit" x="512" y="337" width="7.33337" height="66.6667">
   <properties>
    <property name="delta_index" type="int" value="1"/>
   </properties>
  </object>
  <object id="20" name="spwn_txt" x="197.333" y="340">
   <properties>
    <property name="display_text" value="W A S D to move"/>
   </properties>
   <point/>
  </object>
  <object id="21" name="spwn_txt" x="398" y="366.667">
   <properties>
    <property name="display_text" value="you need to open this door. There must be a button somewhere arround here..."/>
   </properties>
   <point/>
  </object>
 </objectgroup>
 <layer id="1" name="Floor" class="ground" width="19" height="24">
  <data encoding="csv">
0,0,0,0,0,0,0,0,0,0,0,0,0,0,0,0,0,0,0,
0,0,0,0,0,0,0,0,0,0,1,1,1,1,1,1,0,0,0,
0,0,0,0,0,0,0,0,0,0,1,1,1,1,1,1,0,0,0,
0,0,0,0,0,0,0,0,0,0,1,1,1,1,1,1,0,0,0,
0,0,0,0,0,0,0,0,0,0,1,1,1,1,1,1,0,0,0,
0,0,0,0,0,0,0,0,0,0,1,1,1,1,1,1,0,0,0,
0,0,0,0,0,0,0,0,0,0,0,0,1,1,0,0,0,0,0,
0,0,0,0,0,0,0,0,0,0,0,0,1,1,0,0,0,0,0,
0,1,1,1,1,1,1,1,0,0,0,0,1,1,0,0,0,0,0,
0,1,1,1,1,1,1,1,0,0,0,0,1,1,0,0,0,0,0,
0,1,1,1,1,1,1,1,1,1,1,1,1,1,1,1,0,0,0,
0,1,1,1,1,1,1,1,1,1,1,1,1,1,1,1,0,0,0,
0,1,1,1,1,1,1,1,1,1,1,1,1,1,1,1,0,0,0,
0,1,1,1,1,1,1,1,0,0,0,0,1,1,0,0,0,0,0,
0,1,1,1,1,1,1,1,0,0,0,0,1,1,0,0,0,0,0,
0,0,0,0,0,0,0,0,0,0,0,0,1,1,0,0,0,0,0,
0,0,0,0,0,0,0,0,0,0,0,0,1,1,0,0,0,0,0,
0,0,0,0,0,0,0,0,0,0,1,1,1,1,1,1,0,0,0,
0,0,0,0,0,0,0,0,0,0,1,1,1,1,1,1,0,0,0,
0,0,0,0,0,0,0,0,0,0,1,1,1,1,1,1,0,0,0,
0,0,0,0,0,0,0,0,0,0,1,1,1,1,1,1,0,0,0,
0,0,0,0,0,0,0,0,0,0,1,1,1,1,1,1,0,0,0,
0,0,0,0,0,0,0,0,0,0,1,1,1,1,1,1,0,0,0,
0,0,0,0,0,0,0,0,0,0,0,0,0,0,0,0,0,0,0
</data>
 </layer>
 <objectgroup id="2" name="Functional" class="obj">
  <object id="19" name="Door" x="480.409" y="351.955" width="31.5455" height="31.7727">
   <properties>
    <property name="collide" type="bool" value="true"/>
   </properties>
  </object>
 </objectgroup>
 <layer id="3" name="Static_Obsticles" class="collision" width="19" height="24">
  <data encoding="csv">
0,0,0,0,0,0,0,0,0,13,13,13,13,13,13,13,13,0,0,
0,0,0,0,0,0,0,0,0,13,0,0,0,0,0,0,13,0,0,
0,0,0,0,0,0,0,0,0,13,0,6,6,6,0,0,13,0,0,
0,0,0,0,0,0,0,0,0,13,0,6,0,0,0,0,13,0,0,
0,0,0,0,0,0,0,0,0,13,0,0,0,0,0,0,13,0,0,
0,0,0,0,0,0,0,0,0,13,0,0,0,0,0,0,13,0,0,
0,0,0,0,0,0,0,0,0,13,13,13,0,0,13,13,13,0,0,
13,13,13,13,13,13,13,13,13,0,0,13,0,0,13,0,0,0,0,
13,0,0,0,0,6,6,6,13,0,0,13,0,0,13,0,0,0,0,
13,0,0,0,0,0,0,6,13,13,13,13,0,0,13,13,13,13,13,
13,0,0,0,0,0,0,0,0,0,0,0,0,0,0,0,1,1,13,
13,6,0,0,0,0,0,0,0,0,0,0,0,0,0,0,11,1,13,
13,6,0,0,0,0,0,0,0,0,0,0,0,0,0,0,1,1,13,
13,6,0,0,0,0,0,0,13,13,13,13,0,0,13,13,13,13,13,
13,0,0,0,0,0,0,0,13,0,0,13,0,0,13,0,0,0,0,
13,13,13,13,13,13,13,13,13,0,0,13,0,0,13,0,0,0,0,
0,0,0,0,0,0,0,0,0,13,13,13,0,0,13,13,13,0,0,
0,0,0,0,0,0,0,0,0,13,0,0,0,0,0,0,13,0,0,
0,0,0,0,0,0,0,0,0,13,0,0,0,0,0,0,13,0,0,
0,0,0,0,0,0,0,0,0,13,0,6,6,6,6,0,13,0,0,
0,0,0,0,0,0,0,0,0,13,0,0,0,0,0,0,13,0,0,
0,0,0,0,0,0,0,0,0,13,0,0,0,0,0,0,13,0,0,
0,0,0,0,0,0,0,0,0,13,0,0,0,0,0,0,13,0,0,
0,0,0,0,0,0,0,0,0,13,13,13,13,13,13,13,13,0,0
</data>
 </layer>
 <layer id="5" name="Decor" class="decor" width="19" height="24">
  <data encoding="csv">
0,0,0,0,0,0,0,0,0,0,0,0,0,0,0,0,0,0,0,
0,0,0,0,0,0,0,0,0,0,0,0,0,0,0,0,0,0,0,
0,0,0,0,0,0,0,0,0,0,0,0,7,0,0,0,0,0,0,
0,0,0,0,0,0,0,0,0,0,0,0,0,0,0,0,0,0,0,
0,0,0,0,0,0,0,0,0,0,0,0,0,0,0,0,0,0,0,
0,0,0,0,0,0,0,0,0,0,0,0,0,0,0,0,0,0,0,
0,0,0,0,0,0,0,0,0,0,0,0,0,0,0,0,0,0,0,
0,0,0,0,0,0,0,0,0,0,0,0,0,0,0,0,0,0,0,
0,0,0,0,0,0,0,0,0,0,0,0,0,0,0,0,0,0,0,
0,0,0,0,0,0,0,2684354567,0,0,0,0,0,0,0,0,0,0,0,
0,0,0,0,0,0,0,0,0,0,0,0,0,0,0,0,0,0,0,
0,0,0,0,0,0,0,0,0,0,0,0,0,0,0,8,0,0,0,
0,0,0,0,0,0,0,0,0,0,0,0,0,0,0,0,0,0,0,
0,0,0,0,0,0,0,0,0,0,0,0,0,0,0,0,0,0,0,
0,0,0,0,0,0,0,0,0,0,0,0,0,0,0,0,0,0,0,
0,0,0,0,0,0,0,0,0,0,0,0,0,0,0,0,0,0,0,
0,0,0,0,0,0,0,0,0,0,0,0,0,0,0,0,0,0,0,
0,0,0,0,0,0,0,0,0,0,0,0,0,0,0,0,0,0,0,
0,0,0,0,0,0,0,0,0,0,0,0,0,0,0,0,0,0,0,
0,0,0,0,0,0,0,0,0,0,0,0,0,0,2,0,0,0,0,
0,0,0,0,0,0,0,0,0,0,0,0,0,0,0,0,0,0,0,
0,0,0,0,0,0,0,0,0,0,0,0,0,0,0,0,0,0,0,
0,0,0,0,0,0,0,0,0,0,0,0,0,0,0,0,0,0,0,
0,0,0,0,0,0,0,0,0,0,0,0,0,0,0,0,0,0,0
</data>
 </layer>
</map>
